X: 20352
T: MISS WHITESMITH'S WALTZ
C:
%R: waltz
B: Elias Howe "The Musician's Companion" 1843 p.35 #2
S: http://imslp.org/wiki/The_Musician's_Companion_(Howe,_Elias)
Z: 2015 John Chambers <jc:trillian.mit.edu>
M: 3/4
L: 1/8
K: C
% - - - - - - - - - - - - - - - - - - - - - - - - -
G2 |\
EGc2ec | AcGcE2 | g2ageg | decdAc |\
EGc2ec | AcGcE2 | gaegde | c4 :|
|: g2 |\
egg2eg | dgg2dg | cgg2cg | Bgg2Bg |\
egdgcg | Bgcgda | ga eg de | c4 :|
% - - - - - - - - - - - - - - - - - - - - - - - - -

%%sep 1 1 500

